static/SAC.svg

<?xml version="1.0" encoding="UTF-8" standalone="no"?>
<svg width="150px" height="150px" viewBox="0 0 150 150" version="1.1" xmlns="http://www.w3.org/2000/svg" xmlns:xlink="http://www.w3.org/1999/xlink">
    <!-- Generator: Sketch 39.1 (31720) - http://www.bohemiancoding.com/sketch -->
    <title>SAC</title>
    <desc>Created with Sketch.</desc>
    <defs>
        <polygon id="path-1" points="0.00315087491 99.6660028 87.1918759 99.6660028 87.1918759 0.184784476 0.00315087491 0.184784476"></polygon>
    </defs>
    <g id="Page-1" stroke="none" stroke-width="1" fill="none" fill-rule="evenodd">
        <g id="SAC">
            <g id="Page-1" transform="translate(31.000000, 25.000000)">
                <g id="Group-3" transform="translate(0.000000, 0.067934)" fill="#FEFEFE">
                    <path d="M87.1915451,0.115194017 L74.6944284,12.6447905 L64.3143457,2.23935994 L64.2647277,2.28575358 L64.208494,2.23604611 L53.8251034,12.6447905 L43.4284814,2.22941844 L33.041783,12.6447905 L22.6484689,2.22941844 L22.645161,2.23604611 L12.2518469,12.6481043 L0.00282008833,0.363731371 C0.00282008833,0.363731371 0.108671792,51.5392295 0.108671792,55.8405827 C0.108671792,79.968589 19.4299155,99.5997262 43.4979466,99.5997262 C67.5725934,99.5997262 87.1518507,79.968589 87.1518507,55.8405827 C87.1518507,51.5392295 87.1915451,0.115194017 87.1915451,0.115194017" id="Fill-1"></path>
                </g>
                <path d="M31.8446664,68.3300818 C44.2094685,68.3300818 53.4053353,73.4996588 60.1203027,77.2707989 C64.6917732,79.8423321 68.3072704,81.8737107 71.4695901,81.8737107 C72.8622015,81.8737107 74.1390377,81.4859924 75.3794874,80.6840452 C79.3158476,75.6669045 82.0382211,69.7351463 83.2555157,63.5084571 L25.4604856,63.5084571 C25.844198,65.2747293 26.287452,66.9912939 26.7836319,68.6084437 C28.480567,68.4228691 30.18081,68.3300818 31.8446664,68.3300818" id="Fill-4" fill="#5C666F"></path>
                <path d="M3.99276774,63.5051433 C5.02151398,68.7310554 7.05585141,73.6421535 10.0527778,78.1091983 C11.8621803,74.9312339 15.4842933,70.9844608 22.5962046,69.3010344 C22.0504068,67.4717995 21.5641505,65.5265805 21.1506673,63.5051433 L3.99276774,63.5051433 Z" id="Fill-6" fill="#5C666F"></path>
                <path d="M12.8905958,81.8703969 C20.5780757,90.8939598 31.6461945,96.096675 43.3130369,96.1728932 C42.2115176,95.6095418 41.1364613,94.9898554 40.1010993,94.3237752 C35.15584,91.1226141 28.3548681,84.8892973 23.9653303,73.3306534 C17.0518909,74.8417605 14.1277376,78.7653369 12.8905958,81.8703969" id="Fill-8" fill="#5C666F"></path>
                <path d="M28.2218919,72.724885 C31.3379014,80.5720377 36.0483022,86.6032109 42.2273954,90.6527128 C46.3126096,93.3369163 50.2291226,94.5530924 52.8092579,95.1031884 C59.2728275,93.5920813 65.3063746,90.4737659 70.3012519,86.0663702 C66.3615838,85.6322583 62.3193719,83.3622838 58.0522251,80.9630698 C51.3934913,77.2217542 43.100672,72.5591934 31.9035464,72.5591934 C30.6928676,72.5591934 29.4590337,72.6221562 28.2218919,72.724885" id="Fill-10" fill="#5C666F"></path>
                <path d="M45.0582669,43.1204409 C44.9888017,43.1204409 44.9226444,43.1270686 44.8531792,43.1370101 L44.8465635,43.1204409 L35.8491687,43.1204409 L31.3173926,43.1204409 L30.6591274,43.1204409 L30.6591274,60.2662045 L36.6397486,60.2662045 L36.6397486,46.4906074 L41.1351381,46.4906074 L41.1351381,60.2662045 L46.8345908,60.2662045 L46.8345908,45.496458 C46.8345908,44.1874946 46.0373952,43.1204409 45.0582669,43.1204409" id="Fill-12" fill="#5A2C81"></path>
                <path d="M49.7147495,43.1204409 L49.3575,43.1204409 L49.3575,57.8239108 C49.3575,59.136188 50.1480799,60.1966141 51.1239003,60.1966141 C51.1272082,60.1966141 51.1371318,60.1933002 51.1470554,60.1933002 L51.1470554,60.1966141 L60.5546255,60.1966141 L65.5098084,60.1966141 L65.5098084,49.8375771 L59.7640456,49.8309495 L59.7640456,56.8662135 L55.2719639,56.8662135 L55.2719639,46.4077616 L65.5098084,46.4077616 L65.5098084,43.1204409 L54.4846919,43.1204409 L49.7147495,43.1204409 Z" id="Fill-14" fill="#5A2C81"></path>
                <polygon id="Fill-16" fill="#5A2C81" points="14.7400235 43.1237547 11.4850836 50.0297793 9.60621589 50.0297793 9.60621589 43.1237547 3.65205757 43.1237547 3.65205757 60.2595768 9.60621589 60.2595768 9.60621589 53.3568661 11.4850836 53.3568661 14.7400235 60.2595768 20.6875661 60.2595768 16.4931923 51.6933227 20.6875661 43.1237547"></polygon>
                <mask id="mask-2" fill="white">
                    <use xlink:href="#path-1"></use>
                </mask>
                <g id="Clip-19"></g>
                <polygon id="Fill-18" fill="#5A2C81" mask="url(#mask-2)" points="22.271703 60.2579199 28.4342569 60.2579199 28.4342569 43.118784 22.271703 43.118784"></polygon>
                <path d="M83.6203733,47.7352825 L83.626989,43.1191154 L83.6203733,43.1191154 L83.6203733,43.0926047 L67.8153908,43.1191154 L67.8153908,50.9397574 C67.8153908,52.245407 68.6092786,53.3124607 69.5817911,53.3124607 L77.6364441,53.3124607 L77.6364441,57.0504625 L67.8153908,57.0504625 L67.8153908,60.1986024 L83.626989,60.1986024 L83.626989,52.3812741 C83.626989,51.1617841 82.9389529,50.1543794 82.049137,50.0284538 L82.049137,50.0151985 L73.746394,50.0151985 L73.746394,46.4230053 L77.9010734,46.4230053 L77.9010734,47.7352825 L83.6203733,47.7352825 Z" id="Fill-20" fill="#5A2C81" mask="url(#mask-2)"></path>
                <polygon id="Fill-21" fill="#5A2C81" mask="url(#mask-2)" points="66.8064917 25.6744442 61.7586886 25.6744442 72.1685421 15.2425029 64.2991295 7.35558422 53.8198109 17.7676425 43.4298046 7.35558422 25.1571543 25.6744442 20.1093512 25.6744442 30.4993574 15.2259338 22.6464842 7.35558422 12.2564779 17.7676425 3.65271914 9.21795747 3.65271914 26.3040721 3.65271914 39.9404883 83.6203733 39.9404883 83.6203733 26.7149872 83.6203733 8.8202977"></polygon>
                <path d="M21.123212,36.6385867 C21.123212,37.0826401 21.4870772,37.4438477 21.9270234,37.4438477 L22.0295672,37.4438477 L26.4224129,37.4438477 L26.4224129,36.2376131 L22.7606056,36.2376131 L22.7606056,32.3140367 L26.4224129,32.3140367 L26.4224129,31.1078021 L21.123212,31.1078021 L21.123212,36.6385867 Z" id="Fill-22" fill="#FEFEFE" mask="url(#mask-2)"></path>
                <path d="M15.4310367,34.5856681 L17.4587584,34.5856681 L17.4587584,32.3156936 L15.4310367,32.3156936 L15.4310367,34.5856681 Z M18.1964124,31.1160867 L13.796951,31.1061452 L13.796951,37.4488185 L15.4310367,37.4488185 L15.4310367,35.7885889 L17.4587584,35.7885889 L17.4587584,37.4488185 L19.0961519,37.4488185 L19.0961519,31.9180339 C19.0961519,31.444156 18.6793608,31.0498101 18.1964124,31.1160867 L18.1964124,31.1160867 Z" id="Fill-23" fill="#FEFEFE" mask="url(#mask-2)"></path>
                <path d="M76.9871101,36.2260147 L79.0082161,36.2260147 L79.0082161,32.3123798 L76.9871101,32.3123798 L76.9871101,36.2260147 Z M79.848414,31.1061452 L76.1402965,31.1061452 C75.7003503,31.1061452 75.3364851,31.4673528 75.3364851,31.9114062 L75.3364851,36.6369298 C75.3364851,37.0809832 75.7003503,37.4421908 76.1402965,37.4421908 L79.848414,37.4421908 C80.2883601,37.4421908 80.6489175,37.0809832 80.6489175,36.6336159 L80.6489175,31.9114062 C80.6489175,31.4673528 80.2883601,31.1061452 79.848414,31.1061452 L79.848414,31.1061452 Z" id="Fill-24" fill="#FEFEFE" mask="url(#mask-2)"></path>
                <path d="M6.46374344,34.0753381 C6.46374344,34.5193915 6.82760867,34.8805991 7.27086268,34.8805991 L10.1255508,34.8805991 L10.1255508,36.23927 L6.46374344,36.23927 L6.46374344,37.4455046 L11.7629443,37.4455046 L11.7629443,34.4796255 C11.7629443,34.0687104 11.4553128,33.724072 11.0418296,33.6776783 L10.9988274,33.6743645 L8.09782911,33.6743645 L8.09782911,32.3156936 L11.7629443,32.3156936 L11.7629443,31.1061452 L6.46374344,31.1061452 L6.46374344,34.0753381 Z" id="Fill-25" fill="#FEFEFE" mask="url(#mask-2)"></path>
                <path d="M37.2794898,34.5856681 L39.3072115,34.5856681 L39.3072115,32.3156936 L37.2794898,32.3156936 L37.2794898,34.5856681 Z M40.134178,31.1061452 L35.6420963,31.1061452 L35.6420963,37.4488185 L37.2794898,37.4488185 L37.2794898,35.7885889 L39.3072115,35.7885889 L39.3072115,37.4488185 L40.9446051,37.4488185 L40.9446051,31.9180339 C40.9446051,31.4739805 40.5807398,31.1061452 40.134178,31.1061452 L40.134178,31.1061452 Z" id="Fill-26" fill="#FEFEFE" mask="url(#mask-2)"></path>
                <polygon id="Fill-27" fill="#FEFEFE" mask="url(#mask-2)" points="68.2100192 32.3150309 70.0458846 32.3150309 70.0458846 37.4481557 71.6766625 37.4481557 71.6766625 32.3150309 73.5092201 32.3150309 73.5092201 31.1087963 68.2100192 31.1087963"></polygon>
                <path d="M51.2492684,31.1078021 L43.1152266,31.1078021 L43.1152266,37.4438477 L44.7493122,37.4438477 L44.7493122,32.3140367 L46.7571867,32.3140367 L46.7571867,37.4438477 L48.4144275,37.4438477 L48.4144275,32.3140367 L50.4189941,32.3140367 L50.4189941,37.4438477 L52.0530798,37.4438477 L52.0530798,31.9130631 C52.0530798,31.4723236 51.6925224,31.1078021 51.2492684,31.1078021" id="Fill-28" fill="#FEFEFE" mask="url(#mask-2)"></path>
                <path d="M65.7453284,31.1078021 L65.5865509,31.1078021 L61.2532467,31.1078021 L61.2532467,37.4438477 L62.8873324,37.4438477 L62.8873324,32.3140367 L64.9150541,32.3140367 L64.9150541,37.4438477 L66.5524476,37.4438477 L66.5524476,31.9130631 C66.5524476,31.4723236 66.1885824,31.1078021 65.7453284,31.1078021" id="Fill-29" fill="#FEFEFE" mask="url(#mask-2)"></path>
                <path d="M54.2809273,36.6385867 C54.2809273,37.0826401 54.6414847,37.4438477 55.0847387,37.4438477 L55.1872826,37.4438477 L59.5768204,37.4438477 L59.5768204,36.2376131 L55.9183209,36.2376131 L55.9183209,34.8789422 L59.5768204,34.8789422 L59.5768204,33.6760214 L55.9183209,33.6760214 L55.9183209,32.3140367 L59.5768204,32.3140367 L59.5768204,31.1078021 L54.2809273,31.1078021 L54.2809273,36.6385867 Z" id="Fill-30" fill="#FEFEFE" mask="url(#mask-2)"></path>
                <path d="M29.9393358,33.9361572 L31.9670575,33.9361572 L31.9670575,32.3156936 L29.9393358,32.3156936 L29.9393358,33.9361572 Z M32.7278666,35.1423918 L33.6011431,35.1423918 L33.6011431,31.91472 C33.6011431,31.444156 33.1942757,31.0531239 32.7047115,31.1160867 L28.3052501,31.1061452 L28.3052501,37.4488185 L29.9393358,37.4488185 L29.9393358,35.1423918 L31.1235517,35.1423918 L32.10268,37.4421908 L33.6970712,37.4421908 L32.7278666,35.1423918 Z" id="Fill-31" fill="#FEFEFE" mask="url(#mask-2)"></path>
                <rect id="Rectangle" mask="url(#mask-2)" x="-31" y="-25" width="150" height="150"></rect>
            </g>
        </g>
    </g>
</svg>

<svg xmlns="http://www.w3.org/2000/svg" xmlns:xlink="http://www.w3.org/1999/xlink" width="150" height="150"><defs><path id="A" d="M.003 99.666h87.19V.185H.003z"/></defs><g transform="translate(31 25)" fill-rule="evenodd"><path d="M87.192.183l-12.497 12.53-10.38-10.405-.05.046-.056-.05-10.383 10.41L43.428 2.297 33.042 12.713 22.648 2.297l-.003.007-10.393 10.412L.003.432.11 55.91c0 24.128 19.32 43.76 43.39 43.76 24.075 0 43.654-19.63 43.654-43.76l.04-55.725" fill="#fefefe"/><path d="M31.845 68.33c12.365 0 21.56 5.17 28.276 8.94 4.57 2.572 8.187 4.603 11.35 4.603 1.393 0 2.67-.388 3.9-1.2 3.936-5.017 6.66-10.95 7.876-17.176H25.46c.384 1.766.827 3.483 1.323 5.1 1.697-.186 3.397-.278 5.06-.278m-27.85-4.814c1.03 5.226 3.063 10.137 6.06 14.604 1.8-3.178 5.432-7.125 12.543-8.808-.546-1.83-1.032-3.774-1.446-5.796H3.993zM12.9 81.87c7.687 9.024 18.756 14.226 30.422 14.302a37.54 37.54 0 0 1-3.212-1.849c-4.945-3.2-11.746-9.434-16.136-20.993-6.913 1.5-9.838 5.435-11.075 8.54m15.333-9.145c3.116 7.847 7.826 13.878 14.006 17.928 4.085 2.684 8.002 3.9 10.582 4.45a40.4 40.4 0 0 0 17.492-9.037c-3.94-.434-7.982-2.704-12.25-5.103-6.66-3.74-14.952-8.404-26.15-8.404a44.65 44.65 0 0 0-3.682.166" fill="#5c666f"/><path d="M45.058 43.12c-.07 0-.136.007-.205.017l-.007-.017H30.66v17.146h5.98V46.5h4.495v13.776h5.7v-14.77c0-1.3-.797-2.376-1.776-2.376m4.656 0h-.357v14.703c0 1.312.8 2.373 1.766 2.373.003 0 .013-.003.023-.003v.003H65.5v-10.36l-5.746-.007v7.035h-4.492V46.408H65.5V43.12H49.715zm-34.975.004l-3.255 6.906h-1.88v-6.906H3.652V60.26h5.954v-6.903h1.88l3.255 6.903h5.948l-4.194-8.566 4.194-8.57z" fill="#5a2c81"/><mask id="B" fill="#fff"><use xlink:href="#A"/></mask><path mask="url(#B)" d="M22.272 60.258h6.163V43.12h-6.163zM83.62 47.735l.007-4.616h-.007v-.027l-15.805.027v7.82c0 1.306.794 2.373 1.766 2.373h8.055v3.738h-9.82v3.15h15.812v-7.82c0-1.22-.688-2.227-1.578-2.353v-.013h-8.303v-3.592H77.9v1.312h5.72zm-16.814-22.06H61.76l10.4-10.432-7.87-7.887L53.8 17.767 43.4 7.355l-18.273 18.32H20.1l10.4-10.45-7.853-7.87-10.4 10.412-8.604-8.55V39.94H83.62V8.82z" fill="#5a2c81"/><path d="M21.123 36.64a.81.81 0 0 0 .804.805h4.495V36.24H22.76v-3.924h3.662V31.11h-5.3v5.53zm-5.693-2.054h2.028v-2.27H15.43v2.27zm2.765-3.47l-4.4-.01v6.343h1.634v-1.66h2.028v1.66h1.637v-5.53c0-.474-.417-.868-.9-.802zm58.792 5.1h2.02v-3.914h-2.02v3.914zm2.86-5.12H76.14a.81.81 0 0 0-.804.805v4.726a.81.81 0 0 0 .804.805h3.708c.44 0 .8-.36.8-.8V31.9c0-.444-.36-.805-.8-.805zm-73.383 2.97a.81.81 0 0 0 .807.805h2.855v1.36H6.464v1.206h5.3V34.48c0-.4-.308-.756-.72-.802L11 33.674H8.1v-1.36h3.665v-1.2h-5.3v2.97zm30.816.51h2.028v-2.27H37.28v2.27zm2.855-3.48h-4.492v6.343h1.637v-1.66h2.028v1.66h1.637v-5.53c0-.444-.364-.812-.8-.812zm28.065 1.21h1.836v5.133h1.63v-5.133H73.5V31.1h-5.3zm-16.95-1.207h-8.134v6.336h1.634v-5.13h2.008v5.13h1.657v-5.13h2.005v5.13h1.634v-5.53a.81.81 0 0 0-.804-.805m14.495-.001h-4.492v6.336h1.634v-5.13h2.028v5.13h1.637v-5.53a.81.81 0 0 0-.807-.805M54.28 36.64c0 .444.36.805.804.805h4.492V36.24h-3.658v-1.36h3.658v-1.203h-3.658v-1.362h3.658v-1.206H54.28v5.53zm-24.34-2.704h2.028v-1.62H29.94v1.62zm2.8 1.206h.873v-3.228a.8.8 0 0 0-.896-.799l-4.4-.01v6.343h1.634v-2.306h1.184l.98 2.3H33.7l-.97-2.3z" mask="url(#B)" fill="#fefefe"/></g></svg>
